X: 14330
T: Gallopede, The
R: barndance
M: 4/4
K: Gmajor
|:d2|B2 B2 A2 AB|G2 G2 G2 AB|cBcd edcB|A2 A2 A2 dc|
B2 Bc A2 AB|G2 GF G2 AB|cBAG FGAF|G2 G2 G2:|
d2|B2 gf e2 ed|dcBc A2 dc|B2 gf edcB|A2 A2 A2 dc|
B2 gf e2 ed|dcBc A2 dc|B2 dB AcBA|G2 G2 G2||
B2|.d2 .d2 d2 g2|.d2 .d2 d2 g2|.d2 .d2 edcB|.A2 .A2 A2 Bc|
.d2 .d2 d2 g2|.d2 .d2 d2 g2|e>dcB dcBA|.G2 .G2 G2||

